src/assets/svgs/delivery.svg

<svg width="32" height="32" viewBox="0 0 32 32" fill="none" xmlns="http://www.w3.org/2000/svg">
<g clip-path="url(#clip0_4552_580)">
<path d="M19.9163 0C13.2539 0 7.83374 5.40537 7.83374 12.0495C7.83374 18.6937 13.2539 24.099 19.9163 24.099C26.5786 24.099 31.9988 18.6937 31.9988 12.0495C31.9988 5.40537 26.5786 0 19.9163 0ZM19.9163 22.2227C14.2886 22.2227 9.71013 17.659 9.71013 12.0495C9.71013 6.44 14.2886 1.87639 19.9163 1.87639C25.544 1.87639 30.1224 6.44007 30.1224 12.0495C30.1224 17.659 25.5439 22.2227 19.9163 22.2227Z" fill="#BA0800"/>
<path d="M20.8547 5.97742H18.9783V12.9877H26.0038V11.1113H20.8547V5.97742Z" fill="#BA0800"/>
<path d="M0.899902 22.6732L5.91753 17.6698L7.24226 18.9982L2.22463 24.0017L0.899902 22.6732Z" fill="#BA0800"/>
<path d="M0 16.4745L4.61917 11.8684L5.9439 13.1968L1.32473 17.803L0 16.4745Z" fill="#BA0800"/>
<path d="M14.2339 30.6677L18.8531 26.0616L20.1778 27.39L15.5586 31.9962L14.2339 30.6677Z" fill="#BA0800"/>
<path d="M2.24268 28.4307L8.10659 22.5833L9.43132 23.9118L3.5674 29.7591L2.24268 28.4307Z" fill="#BA0800"/>
<path d="M8.01685 29.7699L13.0345 24.7664L14.3592 26.0949L9.34157 31.0984L8.01685 29.7699Z" fill="#BA0800"/>
</g>
<defs>
<clipPath id="clip0_4552_580">
<rect width="32" height="32" fill="white"/>
</clipPath>
</defs>
</svg>

<svg width="32" height="32" fill="none" xmlns="http://www.w3.org/2000/svg"><g clip-path="url(#a)" fill="#BA0800"><path d="M19.916 0C13.254 0 7.834 5.405 7.834 12.05c0 6.644 5.42 12.049 12.082 12.049C26.58 24.099 32 18.694 32 12.049 31.999 5.405 26.579 0 19.916 0Zm0 22.223c-5.627 0-10.206-4.564-10.206-10.173 0-5.61 4.579-10.174 10.206-10.174 5.628 0 10.206 4.564 10.206 10.174 0 5.609-4.578 10.173-10.206 10.173Z"/><path d="M20.855 5.977h-1.877v7.01h7.026v-1.876h-5.15V5.977ZM.9 22.673l5.018-5.003 1.324 1.328-5.017 5.004L.9 22.673ZM0 16.474l4.62-4.606 1.324 1.329-4.62 4.606L0 16.474ZM14.234 30.668l4.62-4.606 1.324 1.328-4.62 4.606-1.324-1.328ZM2.243 28.43l5.864-5.847 1.324 1.329-5.864 5.847-1.324-1.328ZM8.017 29.77l5.018-5.004 1.324 1.329-5.017 5.003-1.325-1.328Z"/></g><defs><clipPath id="a"><path fill="#fff" d="M0 0h32v32H0z"/></clipPath></defs></svg>
